X:0853
M:6/8
L:1/8
Q:3/8=120
K:G
     dBG GBG|AFD DFD|EFG AFD|G3  G2:|
     dBd dBd|gfg dBG|EFG AFD|G3  G2:|

